src/images/icon/todo1.svg

<svg width="60" height="60" viewBox="0 0 60 60" fill="none" xmlns="http://www.w3.org/2000/svg">
<g clip-path="url(#clip0)">
<path d="M52.0626 1.61823L53.7551 5.04503C53.8718 5.2814 54.0974 5.44523 54.3583 5.48308L58.1407 6.03164C58.7978 6.12691 59.0603 6.93433 58.5849 7.39781L55.8488 10.0664C55.6601 10.2505 55.574 10.5157 55.6187 10.7755L56.2658 14.5423C56.3782 15.1967 55.6915 15.6958 55.1038 15.387L51.7203 13.6093C51.4869 13.4868 51.2081 13.4868 50.9748 13.6096L47.5923 15.389C47.0047 15.6981 46.3177 15.1992 46.4298 14.5449L47.0749 10.7777C47.1194 10.5179 47.0332 10.2527 46.8444 10.0688L44.1069 7.40168C43.6313 6.93843 43.8935 6.13089 44.5504 6.03527L48.3326 5.48472C48.5934 5.44675 48.819 5.28281 48.9356 5.04632L50.6261 1.61858C50.9197 1.02315 51.7687 1.02291 52.0626 1.61823Z" fill="#FEC830"/>
<path d="M30.7169 1.61823L32.4093 5.04503C32.526 5.2814 32.7516 5.44523 33.0126 5.48308L36.795 6.03164C37.452 6.12691 37.7145 6.93433 37.2392 7.39781L34.503 10.0664C34.3142 10.2505 34.2282 10.5157 34.2728 10.7755L34.92 14.5423C35.0323 15.1967 34.3456 15.6958 33.7579 15.387L30.3745 13.6093C30.141 13.4868 29.8622 13.4868 29.6289 13.6096L26.2464 15.389C25.6588 15.6981 24.9719 15.1992 25.0839 14.5449L25.729 10.7777C25.7736 10.5179 25.6873 10.2527 25.4985 10.0688L22.761 7.40168C22.2855 6.93843 22.5476 6.13089 23.2046 6.03527L26.9867 5.48472C27.2476 5.44675 27.4731 5.28281 27.5897 5.04632L29.2803 1.61858C29.5738 1.02315 30.4229 1.02291 30.7169 1.61823Z" fill="#FEC830"/>
<path d="M9.37116 1.61823L11.0636 5.04503C11.1803 5.2814 11.4059 5.44523 11.6669 5.48308L15.4492 6.03164C16.1063 6.12691 16.3688 6.93433 15.8935 7.39781L13.1571 10.0664C12.9684 10.2505 12.8823 10.5157 12.927 10.7755L13.5741 14.5423C13.6865 15.1967 12.9998 15.6958 12.4121 15.387L9.02862 13.6093C8.79518 13.4868 8.51639 13.4868 8.28307 13.6096L4.90056 15.389C4.31298 15.6981 3.62603 15.1992 3.73806 14.5449L4.38318 10.7777C4.42771 10.5179 4.34146 10.2527 4.15267 10.0688L1.41517 7.40168C0.939618 6.93843 1.20177 6.13089 1.85872 6.03527L5.64084 5.48472C5.9017 5.44675 6.12728 5.28281 6.24389 5.04632L7.93444 1.61858C8.22823 1.02315 9.07713 1.02291 9.37116 1.61823Z" fill="#FEC830"/>
<path d="M44.0118 58.8277L45.6649 53.5564C46.488 50.9315 46.9068 48.1966 46.9068 45.4458V35.5576C46.9068 34.0014 45.6453 32.7398 44.0891 32.7398C42.5328 32.7398 41.2713 34.0014 41.2713 35.5576V38.997V34.8163V33.4813C41.2713 31.925 40.0098 30.6635 38.4535 30.6635C36.8972 30.6635 35.6357 31.925 35.6357 33.4813V34.4885V38.997V31.6965C35.6357 30.1403 34.3742 28.8787 32.8179 28.8787C31.2617 28.8787 30.0002 30.1403 30.0002 31.6965V38.997V22.4608C30.0002 20.9046 28.7386 19.6431 27.1824 19.6431C25.6261 19.6431 24.3646 20.9046 24.3646 22.4608V42.8854L21.0553 36.7576C20.2909 35.3421 18.5389 34.792 17.1026 35.5166C15.871 36.1379 15.2289 37.5253 15.5524 38.8664L17.6978 47.7589C18.1605 49.6766 18.9979 51.4839 20.1618 53.0767L24.3644 58.8278H44.0118V58.8277Z" fill="#FFF5E0"/>
<path d="M24.3646 32.7661C23.7174 32.7661 23.1927 33.2909 23.1927 33.938V38.2493L22.0865 36.2009C21.0128 34.213 18.5916 33.4526 16.5748 34.4705C14.8487 35.3413 13.9599 37.262 14.4133 39.1414L16.5586 48.0337C17.0601 50.1123 17.9541 52.0417 19.2157 53.7682L23.4185 59.5195C23.648 59.8335 24.0044 60 24.3657 60C24.6055 60 24.8477 59.9266 25.0561 59.7742C25.5787 59.3923 25.6928 58.6591 25.3109 58.1365L21.1081 52.3853C20.0297 50.9097 19.2657 49.2607 18.8371 47.4841L16.6917 38.5916C16.4947 37.7754 16.8809 36.9413 17.6305 36.563C18.5066 36.121 19.558 36.4511 20.0243 37.3145L23.3336 43.4423C23.5886 43.9144 24.1318 44.1528 24.652 44.0215C25.1721 43.89 25.5366 43.422 25.5366 42.8854V33.938C25.5365 33.2908 25.0118 32.7661 24.3646 32.7661Z" fill="#343434"/>
<path d="M44.0889 31.5682C43.3974 31.5682 42.7464 31.7453 42.1788 32.0562C41.6037 30.5583 40.1512 29.4918 38.4533 29.4918C37.721 29.4918 37.0347 29.691 36.4442 30.0367C35.813 28.6635 34.4254 27.707 32.8177 27.707C32.231 27.707 31.674 27.8353 31.1718 28.0637V22.4608C31.1718 20.261 29.3821 18.4712 27.1822 18.4712C24.9822 18.4712 23.1925 20.2609 23.1925 22.4608V24.4922C23.1925 25.1393 23.7172 25.6641 24.3644 25.6641C25.0116 25.6641 25.5363 25.1393 25.5363 24.4922V22.461C25.5363 21.5535 26.2747 20.8151 27.1822 20.8151C28.0897 20.8151 28.8282 21.5536 28.8282 22.4611V38.9971C28.8282 39.6442 29.3528 40.169 30.0001 40.169C30.6473 40.169 31.1719 39.6442 31.1719 38.9971V31.6968C31.1719 30.7893 31.9102 30.0509 32.8178 30.0509C33.7255 30.0509 34.4637 30.7893 34.4637 31.6968V38.9971C34.4637 39.6442 34.9884 40.169 35.6356 40.169C36.2828 40.169 36.8075 39.6442 36.8075 38.9971V33.4815C36.8075 32.5739 37.5458 31.8355 38.4534 31.8355C39.361 31.8355 40.0993 32.5739 40.0993 33.4815V38.9971C40.0993 39.6442 40.6239 40.169 41.2712 40.169C41.9184 40.169 42.443 39.6442 42.443 38.9971V35.5577C42.443 34.6502 43.1814 33.9118 44.0889 33.9118C44.9965 33.9118 45.7348 34.6502 45.7348 35.5577V45.4459C45.7348 48.0808 45.335 50.6917 44.5466 53.2059L42.8935 58.4772C42.6999 59.0948 43.0435 59.7524 43.6611 59.946C43.7778 59.9827 43.8958 60.0001 44.0121 60.0001C44.5106 59.9999 44.9729 59.6793 45.1299 59.1785L46.783 53.9071C47.6427 51.1656 48.0786 48.3188 48.0786 45.4459V35.5577C48.0786 33.358 46.2889 31.5682 44.0889 31.5682Z" fill="#343434"/>
<path d="M59.9018 6.21435C59.6679 5.49493 59.0575 4.9806 58.3087 4.87196L54.7194 4.35153L53.1133 1.09934C52.7785 0.421173 52.1007 0 51.3445 0C51.3446 0 51.3444 0 51.3445 0C50.588 0.000117188 49.9097 0.421759 49.5751 1.10028L47.9708 4.35317L44.3817 4.87571C43.6331 4.9847 43.0229 5.49939 42.7895 6.21904C42.5559 6.93857 42.7475 7.71341 43.2893 8.24123L45.8872 10.7722L45.275 14.3472C45.1474 15.0928 45.4483 15.8322 46.0604 16.2766C46.4061 16.5277 46.8105 16.6551 47.2176 16.6551C47.5313 16.6551 47.8467 16.5794 48.138 16.4262L51.3479 14.7375L54.5587 16.4246C55.2284 16.7766 56.0245 16.7187 56.6364 16.2737C57.2482 15.8289 57.5488 15.0896 57.4206 14.3439L56.8065 10.7693L59.403 8.23701C59.9446 7.70873 60.1357 6.93365 59.9018 6.21435ZM55.0307 9.22748C54.5655 9.68088 54.3537 10.3338 54.4637 10.9739L54.9835 14.0001L52.2655 12.572C51.6905 12.2697 51.004 12.27 50.4292 12.5724L47.7118 14.0019L48.2301 10.9753C48.3396 10.3353 48.1274 9.68264 47.6621 9.22935L45.4627 7.08669L48.5014 6.64443C49.144 6.55079 49.6992 6.1472 49.9864 5.56466L51.3446 2.81098L52.7042 5.56384C52.9918 6.14626 53.5472 6.5495 54.1901 6.6429L57.2288 7.08365L55.0307 9.22748Z" fill="#FEC830"/>
<path d="M24.5413 10.7721L23.9292 14.3471C23.8015 15.0927 24.1025 15.8321 24.7145 16.2764C25.0603 16.5276 25.4647 16.655 25.8718 16.655C26.1855 16.655 26.5008 16.5793 26.7922 16.4261L30.0022 14.7375L33.213 16.4244C33.8826 16.7765 34.6788 16.7186 35.2906 16.2736C35.9025 15.8288 36.203 15.0894 36.0748 14.3438L35.4608 10.7692L38.0573 8.23689C38.5988 7.70873 38.79 6.93376 38.5561 6.21435C38.3222 5.49493 37.7118 4.98048 36.9631 4.87196L33.3738 4.35153L31.7676 1.09934C31.4327 0.421173 30.755 0 29.9987 0C29.9989 0 29.9985 0 29.9987 0C29.2422 0.000117188 28.5638 0.421759 28.2292 1.10028L26.6249 4.35317L23.0358 4.87571C22.2872 4.9847 21.677 5.49939 21.4436 6.21904C21.21 6.93857 21.4017 7.71341 21.9434 8.24123L24.5413 10.7721ZM27.1556 6.64443C27.7981 6.55079 28.3533 6.1472 28.6407 5.56466L29.9989 2.81086L31.3585 5.56384C31.646 6.14614 32.2013 6.5495 32.8443 6.6429L35.883 7.08365L33.6849 9.22748C33.2199 9.68076 33.008 10.3336 33.118 10.9739L33.6378 14.0001L30.9198 12.572C30.3446 12.2698 29.658 12.2699 29.0834 12.5724L26.366 14.0019L26.8843 10.9753C26.9937 10.3351 26.7815 9.68252 26.3163 9.22935L24.117 7.08669L27.1556 6.64443Z" fill="#FEC830"/>
<path d="M14.7288 14.3437L14.1147 10.7691L16.7112 8.23677C17.2527 7.70861 17.4439 6.93365 17.21 6.21423C16.9761 5.49482 16.3656 4.98048 15.6169 4.87185L12.0276 4.35141L10.4216 1.09934C10.0867 0.421173 9.40902 0 8.65269 0C8.65258 0 8.65234 0 8.65211 0C7.89566 0.000117188 7.21785 0.421759 6.88328 1.10028L5.27898 4.35317L1.68987 4.87571C0.941272 4.9847 0.331193 5.49939 0.0976377 6.21892C-0.135917 6.93845 0.0554501 7.7133 0.597326 8.24123L3.19526 10.7722L2.58307 14.3472C2.45545 15.0928 2.75639 15.8322 3.36846 16.2767C3.71429 16.5277 4.11858 16.6552 4.52581 16.6551C4.83952 16.6551 5.15487 16.5794 5.4462 16.4262L8.65621 14.7376L11.867 16.4246C12.5368 16.7764 13.3328 16.7186 13.9447 16.2739C14.5564 15.8288 14.8568 15.0892 14.7288 14.3437ZM12.339 9.22736C11.8738 9.68064 11.6618 10.3336 11.7719 10.9739L12.2917 14.0001L9.57379 12.572C8.99875 12.2698 8.31215 12.2699 7.73746 12.5724L5.01987 14.0021L5.53808 10.9757C5.64777 10.3356 5.43554 9.68287 4.97019 9.22947L2.77104 7.08669L5.8096 6.64443C6.45214 6.55079 7.00738 6.1472 7.2946 5.56466L8.65281 2.81086L10.0124 5.56384C10.2999 6.14614 10.8552 6.5495 11.4982 6.6429L14.537 7.08365L12.339 9.22736Z" fill="#FEC830"/>
<path d="M24.3646 28.1484C24.0564 28.1484 23.754 28.2737 23.5361 28.4918C23.3181 28.7099 23.1927 29.012 23.1927 29.3203C23.1927 29.6285 23.3181 29.9309 23.5361 30.1487C23.754 30.3667 24.0564 30.4922 24.3646 30.4922C24.6728 30.4922 24.9751 30.3668 25.1931 30.1487C25.4111 29.9309 25.5365 29.6285 25.5365 29.3203C25.5365 29.012 25.4111 28.7098 25.1931 28.4918C24.9751 28.2737 24.6729 28.1484 24.3646 28.1484Z" fill="#343434"/>
</g>
<defs>
<clipPath id="clip0">
<rect width="60" height="60" fill="white"/>
</clipPath>
</defs>
</svg>

<svg width="60" height="60" fill="none" xmlns="http://www.w3.org/2000/svg"><g clip-path="url(#clip0)"><path d="M52.063 1.618l1.692 3.427c.117.236.342.4.603.438l3.783.549a.8.8 0 01.444 1.366l-2.736 2.668a.801.801 0 00-.23.71l.647 3.766a.801.801 0 01-1.162.845l-3.384-1.778a.801.801 0 00-.745 0l-3.383 1.78a.801.801 0 01-1.162-.844l.645-3.767a.801.801 0 00-.23-.71l-2.738-2.666a.801.801 0 01.443-1.367l3.783-.55a.801.801 0 00.603-.439l1.69-3.427a.8.8 0 011.437 0zM30.717 1.618l1.692 3.427c.117.236.343.4.604.438l3.782.549c.657.095.92.902.444 1.366l-2.736 2.668a.801.801 0 00-.23.71l.647 3.766a.801.801 0 01-1.162.845l-3.384-1.778a.801.801 0 00-.745 0l-3.383 1.78a.801.801 0 01-1.162-.844l.645-3.767a.8.8 0 00-.23-.71L22.76 7.403a.801.801 0 01.444-1.367l3.782-.55a.8.8 0 00.603-.439l1.69-3.427a.801.801 0 011.437 0zM9.371 1.618l1.693 3.427c.116.236.342.4.603.438l3.782.549c.657.095.92.902.444 1.366l-2.736 2.668a.801.801 0 00-.23.71l.647 3.766a.801.801 0 01-1.162.845L9.03 13.609a.801.801 0 00-.746 0l-3.382 1.78a.801.801 0 01-1.163-.844l.645-3.767a.8.8 0 00-.23-.71L1.415 7.403a.801.801 0 01.444-1.367l3.782-.55a.801.801 0 00.603-.439l1.69-3.427a.801.801 0 011.437 0z" fill="#FEC830"/><path d="M44.012 58.828l1.653-5.272a27.107 27.107 0 001.242-8.11v-9.888a2.818 2.818 0 10-5.636 0v3.439-5.516a2.818 2.818 0 10-5.635 0v5.516-7.3a2.818 2.818 0 10-5.636 0v7.3-16.536a2.818 2.818 0 00-5.635 0v20.424l-3.31-6.127a2.971 2.971 0 00-5.503 2.108l2.146 8.893a14.961 14.961 0 002.464 5.318l4.202 5.75h19.648z" fill="#FFF5E0"/><path d="M24.365 32.766c-.648 0-1.172.525-1.172 1.172v4.311l-1.107-2.048a4.122 4.122 0 00-5.511-1.73 4.127 4.127 0 00-2.162 4.67l2.146 8.893a16.052 16.052 0 002.657 5.734l4.203 5.752a1.17 1.17 0 001.637.254 1.172 1.172 0 00.255-1.638l-4.203-5.75a13.716 13.716 0 01-2.27-4.902l-2.146-8.892c-.197-.817.189-1.65.939-2.029a1.79 1.79 0 012.393.752l3.31 6.127a1.172 1.172 0 002.203-.557v-8.947c0-.647-.525-1.172-1.172-1.172zM44.089 31.568c-.692 0-1.343.177-1.91.488a3.996 3.996 0 00-3.726-2.564c-.732 0-1.418.199-2.009.545a3.994 3.994 0 00-3.626-2.33c-.587 0-1.144.128-1.646.357V22.46c0-2.2-1.79-3.99-3.99-3.99s-3.99 1.79-3.99 3.99v2.031a1.172 1.172 0 002.344 0v-2.031c0-.907.739-1.646 1.646-1.646.908 0 1.646.739 1.646 1.646v16.536a1.172 1.172 0 002.344 0v-7.3c0-.908.738-1.646 1.646-1.646.907 0 1.646.738 1.646 1.646v7.3a1.172 1.172 0 002.343 0v-5.516c0-.907.739-1.646 1.646-1.646.908 0 1.646.739 1.646 1.646v5.516a1.172 1.172 0 002.344 0v-3.44c0-.907.738-1.645 1.646-1.645.907 0 1.646.738 1.646 1.646v9.888c0 2.635-.4 5.246-1.188 7.76l-1.653 5.271a1.172 1.172 0 002.236.702l1.653-5.272a28.246 28.246 0 001.296-8.461v-9.888c0-2.2-1.79-3.99-3.99-3.99z" fill="#343434"/><path d="M59.902 6.214a1.96 1.96 0 00-1.593-1.342l-3.59-.52-1.606-3.253A1.96 1.96 0 0051.344 0c-.756 0-1.434.422-1.769 1.1l-1.604 3.253-3.59.523a1.96 1.96 0 00-1.592 1.343 1.96 1.96 0 00.5 2.022l2.598 2.531-.612 3.575a1.96 1.96 0 00.785 1.93 1.965 1.965 0 002.078.15l3.21-1.69 3.21 1.688a1.96 1.96 0 002.078-.151 1.96 1.96 0 00.785-1.93l-.614-3.575 2.596-2.532a1.961 1.961 0 00.499-2.023zM55.03 9.227a1.972 1.972 0 00-.567 1.747l.52 3.026-2.718-1.428a1.972 1.972 0 00-1.837 0l-2.717 1.43.518-3.027a1.973 1.973 0 00-.568-1.746l-2.2-2.142 3.04-.443a1.972 1.972 0 001.484-1.08l1.359-2.753 1.36 2.753c.287.582.842.986 1.485 1.079l3.039.44-2.198 2.144zM24.541 10.772l-.612 3.575a1.96 1.96 0 00.786 1.93 1.965 1.965 0 002.077.15l3.21-1.69 3.211 1.687a1.96 1.96 0 002.078-.15 1.96 1.96 0 00.784-1.93l-.614-3.575 2.596-2.532a1.96 1.96 0 00.5-2.023 1.96 1.96 0 00-1.594-1.342l-3.59-.52-1.605-3.253A1.96 1.96 0 0029.998 0c-.756 0-1.434.422-1.769 1.1l-1.604 3.253-3.59.523a1.96 1.96 0 00-1.591 1.343 1.96 1.96 0 00.5 2.022l2.597 2.531zm2.615-4.128a1.973 1.973 0 001.485-1.08l1.358-2.753 1.36 2.753c.287.582.842.986 1.485 1.079l3.039.44-2.198 2.144a1.972 1.972 0 00-.567 1.747l.52 3.026-2.718-1.428a1.972 1.972 0 00-1.837 0l-2.717 1.43.518-3.027a1.973 1.973 0 00-.568-1.746l-2.199-2.142 3.039-.443zM14.729 14.344l-.614-3.575 2.596-2.532a1.96 1.96 0 00.499-2.023 1.96 1.96 0 00-1.593-1.342l-3.59-.52-1.605-3.253A1.96 1.96 0 008.652 0a1.96 1.96 0 00-1.769 1.1L5.28 4.353l-3.59.523A1.96 1.96 0 00.099 6.219a1.96 1.96 0 00.5 2.022l2.597 2.531-.612 3.575a1.961 1.961 0 00.785 1.93 1.965 1.965 0 002.078.15l3.21-1.69 3.211 1.688c.67.351 1.466.294 2.078-.151a1.962 1.962 0 00.784-1.93zm-2.39-5.117a1.971 1.971 0 00-.567 1.747l.52 3.026-2.718-1.428a1.972 1.972 0 00-1.837 0l-2.717 1.43.518-3.026a1.972 1.972 0 00-.568-1.747L2.771 7.087l3.039-.443a1.973 1.973 0 001.485-1.08l1.358-2.753 1.36 2.753c.287.582.842.986 1.485 1.079l3.039.44-2.198 2.144z" fill="#FEC830"/><path d="M24.365 28.148c-.309 0-.611.126-.829.344a1.18 1.18 0 00-.343.828c0 .308.125.61.343.829.218.218.52.343.829.343.308 0 .61-.125.828-.343a1.18 1.18 0 00.343-.829c0-.308-.125-.61-.343-.828a1.18 1.18 0 00-.828-.344z" fill="#343434"/></g><defs><clipPath id="clip0"><path fill="#fff" d="M0 0h60v60H0z"/></clipPath></defs></svg>
